X:1
T:Title
%%score { ( 1 4 ) | ( 2 3 ) }
L:1/8
Q:1/4=100
M:6/8
K:D
V:1 treble nm="Grand Piano"
V:4 treble 
V:2 bass 
V:3 bass 
V:1
 F2 F FG[FA] | [GB]2 [GB] [FA]3 | F2 F FG[DFA] | [DGB]2 [DGB] [A,CE]3 | [A,DF]2 [A,FA] [Fd]2 [Ac] | %5
w: William~Kirkpatrick * * * *|||||
 [Ac]2 B B3 | E2 F [FA]2 [EG] | [DF]6 | [DF]2 [FA] [Fd]2 [Ac] | [GB]6 | E2 F [FA]2 [EG] | [DF]6 | %12
w: |||||||
 F2 [FA] [Fd]2 [Ac] | [Ac]2 B B3 | EFG F2 [CE] | D6 |] %16
w: ||||
V:2
 z3 .D3 | [D,D]2 [D,D] [D,D]3 | z3 .D3 | G,,2 G,, A,,3 | D,2 D, [D,A,]2 [F,D] | %5
 [G,D]2 [G,DG] [G,DG]3 | [A,C]2 [A,D][K:bass] [A,,A,]2 [A,,A,] | [D,A,]6 | %8
 [D,A,]2 [D,A,] [D,A,]2 [F,D] | [G,D]2 G, .G,3 | [A,C]2 [A,D] [A,,A,]2 [A,,A,] | [D,A,]2 D, .D,3 | %12
 [D,A,D]2 [D,A,] [D,A,]2 [F,D] | [G,D]2 [G,DG] [G,DG]3 | B,-[F,B,^D][E,B,E] [A,=D]2 [A,,G,] | %15
 .[F,A,]3 z3 |] %16
V:3
 [D,A,D]2 [D,A,D] [D,A,]-[D,A,E][D,D] | x6 | [D,A,D]2 [D,A,D] [D,A,]-[D,A,E]D, | x6 | x6 | x6 | %6
 x3[K:bass] x3 | x6 | x6 | x6 | x6 | x6 | x6 | x6 | .G,3 z3 | D,2- [D,-G,] [D,F,]3 |] %16
V:4
 x6 | x6 | x6 | x6 | x6 | x6 | x6 | x6 | x6 | z2 D .D3 | x6 | z2 A, .A,3 | x6 | x6 | x6 | %15
 z2 B, .A,3 |] %16

